X: 31045
T: Paddy Connelly Buys One Gets One Free
R: jig
M: 6/8
K: Amajor
A|:A3 FED|CB,C B,CB,|A,CE Ace|dcd B2d|
cdc BcB|A3 FED|~C3 DCD|1 EFG AEF:|2 EFG Acd||
|:~e3 cea|~f3 afd|eab c'ba|baf e2d|
cdc BcB|A3 FED|CDC DCD|1 EFG Acd:|2 EFG A3||
K: Dmaj
dB|:A2 d BAd|A2d BAF|DFA BAF|FED EdB|
A2d BAd|A2d BAF|DFA BAF|1 EDC DdB:|2 EDC D3||
|:~B,3 DB,D|~F3 Bcd|cBc ecA|~A^GA EAC|
~B,3 DB,D|~F3 Bcd|cBc ecA|BcA B3:|

